Breeze Round Light/actions/16/insert-table.svg

<svg xmlns="http://www.w3.org/2000/svg" viewBox="0 0 16 16">
  <defs id="defs3051">
    <style type="text/css" id="current-color-scheme">.ColorScheme-Text {color:#fcfcfc;}.ColorScheme-Highlight {color:#3daee9;}</style>
  </defs>
  <path 
    style="color:#000000;fill:#1d99f3"
     d="M 3,3 6,3 6,5 3,5 Z" />a
  <path
    style="fill:currentColor;fill-opacity:1;stroke:none"
    d="m 4,2 c 0,0 -2,0 -2,2 0,2 0,6 0,8 0,2 2,2 2,2 l 5,0 V 13 H 7 V 10 H 9 V 9 H 7 V 6 h 2 v 3 h 1 V 6 h 3 v 3 h 1 C 14,9 14,6 14,4 14,2 12,2 12,2 Z M 4,3 H 6 V 5 H 3 C 3,5 3,5 3,4 3,3 4,3 4,3 Z M 7,3 H 9 V 5 H 7 Z m 3,0 h 2 c 0,0 1,0 1,1 0,1 0,1 0,1 H 10 Z M 3,6 H 6 V 9 H 3 Z m 8,3 v 2 H 9 v 1 h 2 v 2 h 1 v -2 h 2 V 11 H 12 V 9 Z m -8,1 h 3 v 3 H 4 c 0,0 -1,0 -1,-1 0,-1 0,-2 0,-2 z"
    class="ColorScheme-Text"/>
</svg>

<svg xmlns="http://www.w3.org/2000/svg" viewBox="0 0 16 16">
  <defs id="defs3051">
    <style type="text/css" id="current-color-scheme">
      .ColorScheme-Text {
        color:#232629;
      }
      .ColorScheme-Highlight {
        color:#3daee9;
      }
      </style>
  </defs>
  <path 
        style="fill:currentColor;fill-opacity:1;stroke:none"
        d="M 2 2 L 2 14 L 9 14 L 9 13 L 7 13 L 7 10 L 9 10 L 9 9 L 7 9 L 7 6 L 9 6 L 9 9 L 10 9 L 10 6 L 13 6 L 13 9 L 14 9 L 14 2 L 2 2 z M 3 3 L 6 3 L 6 5 L 3 5 L 3 3 z M 7 3 L 9 3 L 9 5 L 7 5 L 7 3 z M 10 3 L 13 3 L 13 5 L 10 5 L 10 3 z M 3 6 L 6 6 L 6 9 L 3 9 L 3 6 z M 11 9 L 11 11 L 9 11 L 9 12 L 11 12 L 11 14 L 12 14 L 12 12 L 14 12 L 14 11 L 12 11 L 12 9 L 11 9 z M 3 10 L 6 10 L 6 13 L 3 13 L 3 10 z "
        class="ColorScheme-Text"
        />
  <path
     style="color:#000000;fill:#1d99f3"
     d="M 3,3 6,3 6,5 3,5 Z" />a
</svg>
